X: 2119
T: LADY JANE NEVILLE
C:
Q: "Reel."
R: Reel.
%R: reel
B: James Kerr "Merry Melodies" v.2 p.15 #119
Z: 2016 John Chambers <jc:trillian.mit.edu>
M: C
L: 1/8
K: G
ud |\
g2(dg) Bgdg | Bgdg a2(ab) |\
g2(dg) (Bg)dg | DAFA G3 ::\
ud |\
(B/c/d) (dB) (c/d/e) (ec) |
(B/c/d) (dB) A2(Ac) |\
[1 (B/c/d) (dB) (c/d/e) (ec) | dgfa g2-g :|\
[2 BdBd cece | dgfa g2-g |]
